X:1
T:Only Jesus
T:Only Jesus
T:S. Foster Ames
T:Palmer Hartsough, 1917
T:Public Domain Courtesy of the Cyber Hymnal™
C:S. Foster Ames
Z:Public Domain
Z:Courtesy of the Cyber Hymnal™
%%score ( 1 2 ) ( 3 4 )
L:1/8
Q:1/4=107
M:4/4
K:Eb
V:1 treble 
V:2 treble 
V:3 bass 
V:4 bass 
V:1
 [EG]3 [EG] [EA]2 [EG]2 | [DF]2 [B,D]2 ([B,E]2 [CF]2) | [EG]3 [B,E] A2 [EG]2 | %3
w: 1.~On- ly Je- sus|would I know, *|Je- sus, on- ly|
w: 2.~On- ly Je- sus|knows my heart, *|Je- sus, on- ly|
w: 3.~On- ly Je- sus|sa- tis- fies, *|Je- sus, on- ly|
 [DF]4 ([DF]2 (3DEF) | G3 [EG] [EA]2 [EG]2 | [DF]2 [B,D]2 ([B,E]2 [CF]2) | [EG]3 [B,E] A2 [EG]2 | %7
w: Je- sus! * * *|He’s my por- tion|here be- low, *|Je- sus, on- ly|
w: Je- sus! * * *|He a- lone can|peace im- part, *|Je- sus, on- ly|
w: Je- sus! * * *|He my ev- ery|want sup- plies, *|Je- sus, on- ly|
 [DF]4 [B,E]2 z2 ||"^Refrain" [EG]3 [GB] [Ge][GB][FA][EG] | [FA]6 z2 | %10
w: Je- sus!|||
w: Je- sus!|Things of earth are trif- ling|toys,|
w: Je- sus!|||
 [Fd]3 [Ac] [GB][FA] [Ac]>[AB] | [GB]6 z2 | [EG]3 [FA] [GB]2 E2 | [EA]2 [EG]2 !fermata![Ec]4 | %14
w: ||||
w: He my high- est thought em-|ploys;|He the spring of|all my joys,|
w: ||||
 [EB]3 E A2 [EG]2 | [DF]4 [B,E]2 z2 |] %16
w: ||
w: Je- sus, on- ly|Je- sus.|
w: ||
V:2
 x8 | x8 | x4 (CD) x2 | x8 | E3 x5 | x8 | x4 (CD) x2 | x8 || x8 | x8 | x8 | x8 | x6 E2 | x8 | %14
 x3 E (CD) x2 | x8 |] %16
V:3
 B,3 B, C2 B,2 | A,2 F,2 ([E,G,]2 [A,,A,]2) | B,3 G, F,2 B,2 | [B,,B,]4 [B,,B,]2 z2 | %4
w: ~ ~ ~ ~|~ ~ ~ *|~ ~ ~ ~|~ ~|
 B,3 B, C2 B,2 | A,2 F,2 ([E,G,]2 [A,,A,]2) | B,3 G, F,2 B,2 | [B,,A,]4 [E,G,]2 z2 || %8
w: ~ ~ ~ ~|~ ~ ~ *|~ ~ ~ ~|~ ~|
 [E,B,]3 [E,B,] [E,B,][E,B,][D,B,][E,B,] | [B,,B,][B,,D][D,D][F,D] [B,,B,D]2 z2 | %10
w: ~ ~ ~ ~ ~ ~|~ are trif- ling toys,|
 [B,,B,]3 [B,,B,] [B,,B,][B,,B,] [B,,D]>[B,,D] | [E,E][E,E][G,E][B,E] [E,E]2 z2 | %12
w: ~ ~ ~ ~ ~ my|high- est thought em- ploys,|
 [E,B,]3 [E,B,] [E,E]2 [E,G,]2 | [E,C]2 [E,B,]2 !fermata![A,,A,]4 | %14
w: ||
 [B,,G,]3 [B,,G,] [B,,F,]2 [B,,B,]2 | [B,,A,]4 [E,G,]2 z2 |] %16
w: ||
V:4
 E,4 E,4 | D,4 x4 | B,,4 B,,4 | x8 | E,4 E,4 | B,,4 x4 | B,,4 B,,4 | x8 || x8 | x8 | x8 | x8 | x8 | %13
 x8 | x8 | x8 |] %16

